images/ic_wind.svg

<svg width="24" height="24" viewBox="0 0 24 24" fill="none" xmlns="http://www.w3.org/2000/svg">
<rect y="7.60229" width="11.2501" height="1.77016" rx="0.88508" fill="#1B76BC"/>
<rect x="16.9167" y="5.23413" width="3.67657" height="1.77819" rx="0.889096" fill="#1B76BC"/>
<rect y="11.9607" width="20.8344" height="1.77016" rx="0.88508" fill="#1B76BC"/>
<rect y="16.3186" width="14.392" height="1.77016" rx="0.88508" fill="#1B76BC"/>
<rect x="6.77539" y="3" width="4.47469" height="1.77016" rx="0.88508" fill="#1B76BC"/>
<path fill-rule="evenodd" clip-rule="evenodd" d="M7.54688 4.77684C8.06698 3.72407 9.15157 3 10.4053 3C12.165 3 13.5916 4.42655 13.5916 6.18629C13.5916 7.94603 12.165 9.37258 10.4053 9.37258C9.15418 9.37258 8.0715 8.65152 7.55013 7.60232H10.391C10.3957 7.60236 10.4004 7.60239 10.4052 7.60239C10.4099 7.60239 10.4146 7.60236 10.4194 7.60232H10.4644V7.60117C11.219 7.57015 11.8213 6.94854 11.8213 6.18626C11.8213 5.40415 11.1873 4.77013 10.4052 4.77013C10.3584 4.77013 10.3121 4.7724 10.2665 4.77684H7.54688Z" fill="#1B76BC"/>
<rect width="1.77016" height="1.77016" rx="0.88508" transform="matrix(1 0 0 -1 15.3152 20.4446)" fill="#1B76BC"/>
<path fill-rule="evenodd" clip-rule="evenodd" d="M15.3151 19.5046C15.315 18.7424 14.7127 18.1209 13.958 18.09V18.0889H13.9132L13.899 18.0888L13.8848 18.0889H11.0439C11.5653 17.0397 12.648 16.3187 13.899 16.3187C15.6587 16.3187 17.0851 17.7451 17.0853 19.5046H15.3151Z" fill="#1B76BC"/>
<path fill-rule="evenodd" clip-rule="evenodd" d="M16.3005 11.9606C17.0718 13.0326 18.3301 13.7306 19.7515 13.7306C22.0978 13.7306 23.9999 11.8285 23.9999 9.48222C23.9999 7.14314 22.1095 5.24557 19.7732 5.23389V7.02069C19.7791 7.02065 19.785 7.02063 19.7909 7.02063C21.155 7.02063 22.2609 8.12648 22.2609 9.49062C22.2609 10.8548 21.155 11.9606 19.7909 11.9606C19.785 11.9606 19.7791 11.9606 19.7732 11.9605V11.9606H16.3005Z" fill="#1B76BC"/>
</svg>

<svg xmlns="http://www.w3.org/2000/svg" viewBox="0 0 24 24" fill="#1b76bc"><rect y="7.602" width="11.25" height="1.77" rx=".885"/><rect x="16.917" y="5.234" width="3.677" height="1.778" rx=".889"/><rect y="11.961" width="20.834" height="1.77" rx=".885"/><rect y="16.319" width="14.392" height="1.77" rx=".885"/><rect x="6.775" y="3" width="4.475" height="1.77" rx=".885"/><path d="M7.547 4.777C8.067 3.724 9.152 3 10.405 3c1.76 0 3.186 1.427 3.186 3.186s-1.427 3.186-3.186 3.186c-1.25 0-2.334-.72-2.855-1.77l2.914-.001c.755-.03 1.357-.653 1.357-1.415 0-.782-.634-1.416-1.416-1.416l-.14.007h-2.72z" fill-rule="evenodd"/><rect transform="matrix(1 0 0 -1 15.315 20.445)" width="1.77" height="1.77" rx=".885"/><path d="M15.315 19.505c0-.762-.602-1.384-1.357-1.415v-.001h-2.913c.52-1.05 1.604-1.77 2.855-1.77 1.76 0 3.186 1.426 3.186 3.186h-1.77zm.985-7.545a4.24 4.24 0 0 0 3.45 1.77 4.25 4.25 0 0 0 4.248-4.248 4.25 4.25 0 0 0-4.227-4.248V7.02c1.382 0 2.488 1.106 2.488 2.47a2.47 2.47 0 0 1-2.47 2.47h-3.5z" fill-rule="evenodd"/></svg>
